src/assets/icons/asterisk.svg

<svg width="14" height="14" viewBox="0 0 14 14" fill="none" xmlns="http://www.w3.org/2000/svg">
<g id="asterisk">
<g clip-path="url(#clip0_295_4691)">
<path id="Vector" fill-rule="evenodd" clip-rule="evenodd" d="M7.67741 0.677419C7.67741 0.303291 7.37412 0 6.99999 0C6.62586 0 6.32257 0.303291 6.32257 0.677419V5.82668L1.86317 3.25205C1.53916 3.06498 1.12486 3.176 0.937794 3.5C0.75073 3.824 0.861742 4.23831 1.18575 4.42537L5.64513 7L1.18575 9.57463C0.861742 9.76169 0.75073 10.176 0.937794 10.5C1.12486 10.824 1.53916 10.935 1.86317 10.748L6.32257 8.17332V13.3226C6.32257 13.6967 6.62586 14 6.99999 14C7.37412 14 7.67741 13.6967 7.67741 13.3226V8.17333L12.1368 10.748C12.4608 10.935 12.8751 10.824 13.0622 10.5C13.2492 10.176 13.1382 9.76169 12.8142 9.57463L8.35481 7L12.8142 4.42537C13.1382 4.23831 13.2492 3.824 13.0622 3.5C12.8751 3.176 12.4608 3.06498 12.1368 3.25205L7.67741 5.82667V0.677419Z" fill="black"/>
</g>
</g>
<defs>
<clipPath id="clip0_295_4691">
<rect width="14" height="14" fill="white"/>
</clipPath>
</defs>
</svg>

<svg xmlns="http://www.w3.org/2000/svg" fill="none" viewBox="0 0 14 14"><g clip-path="url(#a)"><path fill="#000" fill-rule="evenodd" d="M7.677.677a.677.677 0 1 0-1.354 0v5.15l-4.46-2.575a.677.677 0 1 0-.677 1.173L5.646 7l-4.46 2.575a.677.677 0 0 0 .677 1.173l4.46-2.575v5.15a.677.677 0 0 0 1.354 0v-5.15l4.46 2.575a.678.678 0 0 0 .677-1.173L8.354 7l4.46-2.575a.677.677 0 0 0-.677-1.173l-4.46 2.575z" clip-rule="evenodd"/></g><defs><clipPath id="a"><path fill="#fff" d="M0 0h14v14H0z"/></clipPath></defs></svg>
